img/indiegogo.svg

<svg width="191" height="63" viewBox="0 0 191 63" xmlns="http://www.w3.org/2000/svg" xmlns:sketch="http://www.bohemiancoding.com/sketch/ns"><title>IndieGoGo</title><desc>Created with Sketch.</desc><g sketch:type="MSLayerGroup" fill="none"><path d="M190.5 54.206c0 4.627-3.76 8.38-8.397 8.38h-173.203c-4.638 0-8.399-3.753-8.399-8.38v-45.241c0-4.627 3.761-8.379 8.399-8.379h173.203c4.637 0 8.397 3.752 8.397 8.379v45.241" fill="#1A1919" sketch:type="MSShapeGroup"/><path d="M16.477 56.16h48.294v-6.09h-3.045v3.045h-42.204v-42.203h42.204v24.774h3.045v-27.819h-48.294v48.293" fill="#CA4671" sketch:type="MSShapeGroup"/><path d="M27.089 37.178h3.046v11.398h-3.046v-11.398z" fill="#CA4671" sketch:type="MSShapeGroup"/><path d="M37.921 42.454l-3.077-5.276h-3.199v11.398h2.891v-5.922l.046.001 3.492 5.921h2.799v-11.398h-2.907v5.276h-.045" fill="#CA4671" sketch:type="MSShapeGroup"/><path d="M42.393 37.178v11.398h3.83c3.614 0 5.321-.908 5.321-5.707 0-4.706-1.737-5.691-5.367-5.691h-3.784zm6.06 5.706c0 2.877-.815 3.061-1.953 3.061h-1.062v-5.998h.938c1.293 0 2.077.077 2.077 2.937z" fill="#CA4671" sketch:type="MSShapeGroup"/><path d="M52.635 37.178h3.045v11.398h-3.045v-11.398z" fill="#CA4671" sketch:type="MSShapeGroup"/><path d="M80.843 37.04c-4.245 0-4.999 2.783-4.999 5.844 0 3.046.754 5.83 4.999 5.83 4.23 0 4.984-2.784 4.984-5.83 0-3.061-.739-5.844-4.984-5.844zm0 8.982c-1.677 0-1.908-1.154-1.908-3.03 0-1.861.231-3.015 1.908-3.015 1.661 0 1.892 1.154 1.892 3.015 0 1.876-.231 3.03-1.892 3.03z" fill="#CA4671" sketch:type="MSShapeGroup"/><path d="M102.191 37.04c-4.246 0-5 2.783-5 5.844 0 3.046.754 5.83 5 5.83 4.229 0 4.982-2.784 4.982-5.83 0-3.061-.738-5.844-4.982-5.844zm0 8.982c-1.677 0-1.908-1.154-1.908-3.03 0-1.861.231-3.015 1.908-3.015 1.66 0 1.891 1.154 1.891 3.015 0 1.876-.231 3.03-1.891 3.03z" fill="#CA4671" sketch:type="MSShapeGroup"/><path d="M108.156 46.772c-.556 0-.692.376-.692.867 0 .489.136.863.692.863.553 0 .694-.374.694-.863 0-.491-.141-.867-.694-.867zm0 1.607c-.455 0-.56-.321-.56-.74 0-.421.105-.742.56-.742.455 0 .562.321.562.742 0 .419-.107.74-.562.74z" fill="#CA4671" sketch:type="MSShapeGroup"/><path d="M108.538 47.443c0-.206-.068-.325-.334-.325h-.394v1.031h.211v-.364h.135l.159.364h.216l-.173-.385c.139-.045.18-.159.18-.321zm-.343.172h-.174v-.312h.174c.102 0 .136.043.136.156 0 .112-.034.156-.136.156z" fill="#CA4671" sketch:type="MSShapeGroup"/><path d="M70.004 44.177h1.965v.199c0 1.26.039 1.815-1.461 1.815-1.4 0-1.877-.646-1.877-3.214 0-2.677.8-3 2-3 .891 0 1.523.231 2.046.524l1.63-2.538c-.862-.554-2.123-.923-3.538-.923-3.937 0-5.199 1.892-5.199 5.844 0 3.446.923 5.83 4.661 5.83.662 0 1.231-.045 1.721-.138h2.801v-6.876h-4.413l-.336 2.477" fill="#CA4671" sketch:type="MSShapeGroup"/><path d="M91.351 44.177h1.965v.199c0 1.26.04 1.815-1.461 1.815-1.399 0-1.877-.646-1.877-3.214 0-2.677.8-3 2-3 .891 0 1.523.231 2.046.524l1.63-2.538c-.862-.554-2.123-.923-3.538-.923-3.937 0-5.198 1.892-5.198 5.844 0 3.446.922 5.83 4.66 5.83.662 0 1.231-.045 1.721-.138h2.801v-6.876h-4.412l-.337 2.477" fill="#CA4671" sketch:type="MSShapeGroup"/><path d="M64.769 39.962v-2.784h-7.568v11.398h7.568v-2.707h-4.584v-1.708h3.011l.367-2.706h-3.378v-1.493h4.584" fill="#CA4671" sketch:type="MSShapeGroup"/></g></svg>

<?xml version="1.0" encoding="UTF-8" standalone="no"?>
<svg width="191px" height="63px" viewBox="0 0 191 63" version="1.1" xmlns="http://www.w3.org/2000/svg" xmlns:xlink="http://www.w3.org/1999/xlink" xmlns:sketch="http://www.bohemiancoding.com/sketch/ns">
    <!-- Generator: Sketch 3.2.2 (9983) - http://www.bohemiancoding.com/sketch -->
    <title>IndieGoGo</title>
    <desc>Created with Sketch.</desc>
    <defs></defs>
    <g id="Page-1" stroke="none" stroke-width="1" fill="none" fill-rule="evenodd" sketch:type="MSPage">
        <g id="IndieGoGo" sketch:type="MSLayerGroup">
            <path d="M190.5,54.2060595 C190.5,58.8330144 186.739839,62.586 182.102574,62.586 L8.89942375,62.586 C4.26115966,62.586 0.5,58.8330144 0.5,54.2060595 L0.5,8.96494398 C0.5,4.33798907 4.26115966,0.586 8.89942375,0.586 L182.102574,0.586 C186.739839,0.586 190.5,4.33798907 190.5,8.96494398 L190.5,54.2060595" id="Fill-1" fill="#1A1919" sketch:type="MSShapeGroup"></path>
            <path d="M16.477,56.16 L64.771,56.16 L64.771,50.07 L61.726,50.07 L61.726,53.115 L19.522,53.115 L19.522,10.912 L61.726,10.912 L61.726,35.686 L64.771,35.686 L64.771,7.867 L16.477,7.867 L16.477,56.16" id="Fill-2" fill="#CA4671" sketch:type="MSShapeGroup"></path>
            <path d="M27.089,37.178 L30.135,37.178 L30.135,48.576 L27.089,48.576 L27.089,37.178 Z" id="Fill-3" fill="#CA4671" sketch:type="MSShapeGroup"></path>
            <path d="M37.921,42.454 L34.844,37.178 L31.645,37.178 L31.645,48.576 L34.536,48.576 L34.536,42.654 L34.582,42.655 L38.074,48.576 L40.873,48.576 L40.873,37.178 L37.966,37.178 L37.966,42.454 L37.921,42.454" id="Fill-4" fill="#CA4671" sketch:type="MSShapeGroup"></path>
            <path d="M42.393,37.178 L42.393,48.576 L46.223,48.576 C49.837,48.576 51.544,47.668 51.544,42.869 C51.544,38.163 49.807,37.178 46.177,37.178 L42.393,37.178 L42.393,37.178 Z M48.453,42.884 C48.453,45.761 47.638,45.945 46.5,45.945 L45.438,45.945 L45.438,39.947 L46.376,39.947 C47.669,39.947 48.453,40.024 48.453,42.884 L48.453,42.884 Z" id="Fill-5" fill="#CA4671" sketch:type="MSShapeGroup"></path>
            <path d="M52.635,37.178 L55.68,37.178 L55.68,48.576 L52.635,48.576 L52.635,37.178 Z" id="Fill-6" fill="#CA4671" sketch:type="MSShapeGroup"></path>
            <path d="M80.843,37.04 C76.598,37.04 75.844,39.823 75.844,42.884 C75.844,45.93 76.598,48.714 80.843,48.714 C85.073,48.714 85.827,45.93 85.827,42.884 C85.827,39.823 85.088,37.04 80.843,37.04 L80.843,37.04 Z M80.843,46.022 C79.166,46.022 78.935,44.868 78.935,42.992 C78.935,41.131 79.166,39.977 80.843,39.977 C82.504,39.977 82.735,41.131 82.735,42.992 C82.735,44.868 82.504,46.022 80.843,46.022 L80.843,46.022 Z" id="Fill-7" fill="#CA4671" sketch:type="MSShapeGroup"></path>
            <path d="M102.191,37.04 C97.945,37.04 97.191,39.823 97.191,42.884 C97.191,45.93 97.945,48.714 102.191,48.714 C106.42,48.714 107.173,45.93 107.173,42.884 C107.173,39.823 106.435,37.04 102.191,37.04 L102.191,37.04 Z M102.191,46.022 C100.514,46.022 100.283,44.868 100.283,42.992 C100.283,41.131 100.514,39.977 102.191,39.977 C103.851,39.977 104.082,41.131 104.082,42.992 C104.082,44.868 103.851,46.022 102.191,46.022 L102.191,46.022 Z" id="Fill-8" fill="#CA4671" sketch:type="MSShapeGroup"></path>
            <path d="M108.156,46.772 C107.6,46.772 107.464,47.148 107.464,47.639 C107.464,48.128 107.6,48.502 108.156,48.502 C108.709,48.502 108.85,48.128 108.85,47.639 C108.85,47.148 108.709,46.772 108.156,46.772 L108.156,46.772 Z M108.156,48.379 C107.701,48.379 107.596,48.058 107.596,47.639 C107.596,47.218 107.701,46.897 108.156,46.897 C108.611,46.897 108.718,47.218 108.718,47.639 C108.718,48.058 108.611,48.379 108.156,48.379 L108.156,48.379 Z" id="Fill-9" fill="#CA4671" sketch:type="MSShapeGroup"></path>
            <path d="M108.538,47.443 C108.538,47.237 108.47,47.118 108.204,47.118 L107.81,47.118 L107.81,48.149 L108.021,48.149 L108.021,47.785 L108.156,47.785 L108.315,48.149 L108.531,48.149 L108.358,47.764 C108.497,47.719 108.538,47.605 108.538,47.443 L108.538,47.443 Z M108.195,47.615 L108.021,47.615 L108.021,47.303 L108.195,47.303 C108.297,47.303 108.331,47.346 108.331,47.459 C108.331,47.571 108.297,47.615 108.195,47.615 L108.195,47.615 Z" id="Fill-10" fill="#CA4671" sketch:type="MSShapeGroup"></path>
            <path d="M70.004,44.177 L71.969,44.177 L71.969,44.376 C71.969,45.636 72.008,46.191 70.508,46.191 C69.108,46.191 68.631,45.545 68.631,42.977 C68.631,40.3 69.431,39.977 70.631,39.977 C71.522,39.977 72.154,40.208 72.677,40.501 L74.307,37.963 C73.445,37.409 72.184,37.04 70.769,37.04 C66.832,37.04 65.57,38.932 65.57,42.884 C65.57,46.33 66.493,48.714 70.231,48.714 C70.893,48.714 71.462,48.669 71.952,48.576 L74.753,48.576 L74.753,41.7 L70.34,41.7 L70.004,44.177" id="Fill-11" fill="#CA4671" sketch:type="MSShapeGroup"></path>
            <path d="M91.351,44.177 L93.316,44.177 L93.316,44.376 C93.316,45.636 93.356,46.191 91.855,46.191 C90.456,46.191 89.978,45.545 89.978,42.977 C89.978,40.3 90.778,39.977 91.978,39.977 C92.869,39.977 93.501,40.208 94.024,40.501 L95.654,37.963 C94.792,37.409 93.531,37.04 92.116,37.04 C88.179,37.04 86.918,38.932 86.918,42.884 C86.918,46.33 87.84,48.714 91.578,48.714 C92.24,48.714 92.809,48.669 93.299,48.576 L96.1,48.576 L96.1,41.7 L91.688,41.7 L91.351,44.177" id="Fill-12" fill="#CA4671" sketch:type="MSShapeGroup"></path>
            <path d="M64.769,39.962 L64.769,37.178 L57.201,37.178 L57.201,48.576 L64.769,48.576 L64.769,45.869 L60.185,45.869 L60.185,44.161 L63.196,44.161 L63.563,41.455 L60.185,41.455 L60.185,39.962 L64.769,39.962" id="Fill-13" fill="#CA4671" sketch:type="MSShapeGroup"></path>
        </g>
    </g>
</svg>
